images/logo.svg

<svg width="357.25" height="124" xmlns="http://www.w3.org/2000/svg">

 <g>
  <title>background</title>
  <rect fill="none" id="canvas_background" height="402" width="582" y="-1" x="-1"/>
 </g>
 <g>
  <title>Layer 1</title>
  <path id="svg_1" d="m42.493,26.625c-19.456,0 -35.375,15.919 -35.375,35.375s15.919,35.375 35.375,35.375s35.375,-15.919 35.375,-35.375s-15.919,-35.375 -35.375,-35.375zm3.537,7.322c12.769,1.592 22.925,11.779 24.514,24.516l-24.514,0l0,-24.516zm-31.837,28.053c0,-14.361 10.858,-26.318 24.763,-28.053l0,56.139c-13.904,-1.77 -24.763,-13.723 -24.763,-28.086zm31.837,28.051l0,-24.514l24.514,0c-1.589,12.77 -11.745,22.925 -24.514,24.514z"/>
  <text style="cursor: move;" font-weight="bold" stroke="null" transform="matrix(2.0124380588531494,0,0,1.9818181991577148,-84.15891364216805,-44.18181896209717) " xml:space="preserve" text-anchor="start" font-family="Helvetica, Arial, sans-serif" font-size="24" id="svg_7" y="69.018349" x="80.143542" fill-opacity="null" stroke-opacity="null" stroke-width="0" fill="#000000">ctank Media</text>
 </g>
</svg>

<svg fill="#ffffff" xmlns="http://www.w3.org/2000/svg" width="357.25px" height="124px" viewBox="0 0 357.25 124">
	<path d="M42.493,26.625C23.037,26.625,7.118,42.544,7.118,62s15.919,35.375,35.375,35.375S77.868,81.456,77.868,62 S61.949,26.625,42.493,26.625z M46.03,33.947c12.769,1.592,22.925,11.779,24.514,24.516H46.03V33.947z M14.193,62 c0-14.361,10.858-26.318,24.763-28.053v56.139C25.052,88.316,14.193,76.363,14.193,62z M46.03,90.051V65.537h24.514 C68.955,78.307,58.799,88.462,46.03,90.051z"/>
	<path d="M114.24,24.666h8.888v30.502h0.202c1.414-2.525,3.636-4.747,6.363-6.262 c2.626-1.516,5.757-2.525,9.09-2.525c6.564,0,17.068,4.04,17.068,20.906v29.088h-8.888V68.298c0-7.878-2.929-14.544-11.312-14.544 c-5.757,0-10.302,4.04-11.917,8.888c-0.505,1.212-0.606,2.525-0.606,4.242v29.491h-8.888V24.666z"/>
	<path d="M172.215,47.492l10.705,28.885c1.111,3.232,2.323,7.07,3.131,9.999h0.203 c0.908-2.929,1.918-6.666,3.131-10.2l9.695-28.684h9.393l-13.332,34.844c-6.362,16.766-10.705,25.351-16.765,30.603 c-4.343,3.838-8.686,5.354-10.908,5.757l-2.222-7.474c2.222-0.707,5.151-2.121,7.777-4.343c2.424-1.919,5.454-5.353,7.474-9.897 c0.404-0.909,0.707-1.616,0.707-2.121s-0.201-1.212-0.605-2.323l-18.079-45.045H172.215z"/>
	<path d="M257.761,24.666V83.75c0,4.343,0.101,9.292,0.404,12.625h-7.979l-0.403-8.483h-0.202 c-2.727,5.453-8.686,9.595-16.664,9.595c-11.817,0-20.907-9.999-20.907-24.846c-0.101-16.261,9.999-26.26,21.917-26.26 c7.474,0,12.523,3.535,14.745,7.474h0.202V24.666H257.761z M248.873,67.389c0-1.111-0.102-2.626-0.404-3.737 c-1.312-5.655-6.16-10.302-12.826-10.302c-9.191,0-14.645,8.08-14.645,18.887c0,9.898,4.848,18.079,14.442,18.079 c5.959,0,11.413-3.939,13.028-10.605c0.303-1.212,0.404-2.424,0.404-3.838V67.389z"/>
	<path d="M272.508,62.743c0-5.758-0.102-10.706-0.404-15.251h7.776l0.304,9.595h0.403 c2.222-6.565,7.575-10.706,13.534-10.706c1.01,0,1.717,0.102,2.524,0.303v8.383c-0.909-0.201-1.817-0.303-3.03-0.303 c-6.262,0-10.705,4.747-11.918,11.413c-0.201,1.212-0.403,2.626-0.403,4.141v26.058h-8.786V62.743z"/>
	<path d="M332.098,96.375l-0.707-6.161h-0.304c-2.727,3.838-7.979,7.272-14.948,7.272 c-9.896,0-14.947-6.969-14.947-14.039c0-11.816,10.504-18.28,29.391-18.18v-1.01c0-4.04-1.111-11.312-11.109-11.312 c-4.545,0-9.292,1.413-12.727,3.636l-2.02-5.858c4.04-2.626,9.898-4.343,16.059-4.343c14.947,0,18.584,10.201,18.584,19.998v18.28 c0,4.242,0.201,8.383,0.808,11.716H332.098z M330.784,71.429c-9.696-0.202-20.704,1.515-20.704,11.009 c0,5.757,3.838,8.483,8.383,8.483c6.362,0,10.402-4.04,11.816-8.181c0.303-0.909,0.505-1.919,0.505-2.828V71.429z"/>
</svg>
